!!!!SEGMENT: pl-wnifc--6641-n_noskowski-zygmunt--wiara-milosc-i-nadzieja.krn
!!!cenid: 18xx:3989
!!!COM: Noskowski, Zygmunt
!!!COM-rismID: pe106604
!!!CDT: 1846/05/02-1909/07/23
!!!CNT: Polish
!!!OTL: Wiara, miłość i nadzieja
!!!PDT:
!!!AGN:
!!!YEC: Copyright 2022 Narodowy Instytut Fryderyka Chopina (https://polishscores.org)
!!!YEM: License CC-BY-4.0 (https://creativecommons.org/licenses/by/4.0)
!!!SMS-siglum: PL-Wnifc
!!!SMS-shelfmark: 6641/n
!!!SMS-shelfwork: W
!!!SMS-variant:
!!!SMS-altvar:
!!!NIFC-rismSourceID: 1001149561
!!!NIFC-rismChildID: 1001149561
!!!NIFC-islandoraID: nifc:212957
!!!URL-pdf-islandora: https://repozytorium.nifc.pl/islandora/object/nifc%3A212957/datastream/PDF/view
!!!URL-scan: https://polish.musicsources.pl/pl/lokalizacje/galeria/druki-muzyczne/16876 @EN{Scan on Polish Music Sources Website} @PL{Skany w portalu Dziedzictwo Muzyki Polskiej w otwartym dostępie}
!!!IIIF:
!!!ONB-nifc:
!!!AIN: 2 piano 1 vox
!!!key: a
**kern	**kern	**dynam	**kern	**text	**text
*part3	*part2	*	*part1	*	*
*staff3	*staff2	*	*staff1	*	*
*I"Fortepian.	*I"Fortepian.	*	*I"Śpiew.	*	*
*I'pf	*I'pf	*	*I'V	*	*
*ICklav	*ICklav	*	*ICvox	*	*
*Ipiano	*Ipiano	*	*Ivox	*	*
*clefF4	*clefG2	*	*clefG2	*	*
*k[]	*k[]	*	*k[]	*	*
*a:	*a:	*	*a:	*	*
*M3/4	*M3/4	*	*M3/4	*	*
=1	=1	=1	=1	=1	=1
!	!	!	!LO:TX:a:B:t=Andante con moto.	!	!
[2.AAA/ [2.AA	[2.A/ [2.c [2.e	pp	2.r	.	.
=2	=2	=2	=2	=2	=2
2.AAA/] 2.AA]	2.A/] 2.c] 2.e]	.	2.r	.	.
=3!|:	=3!|:	=3!|:	=3!|:	=3!|:	=3!|:
2.AAA/ 2.AA	4A/ 4c 4e	.	8e/	Oj	Jam
.	.	.	8a/	chłop-	sie-
.	.	.	(8qcc/	.	.
.	2G#X/ 2d 2e	.	4.b\)	-czy-	-ro-
.	.	.	8g#X/	-no,	-ta,
=4	=4	=4	=4	=4	=4
2.AAA/ 2.AA	2.A/ 2.c 2.e	.	8a/	Ja-	Ty
.	.	.	8cc\	-ką	dla
.	.	.	4b\	wi-	zło-
.	.	.	4a/	-ną	-ta,
!!LO:LB:g=original	!	!	!	!	!
=5	=5	=5	=5	=5	=5
2.AAA/ 2.AA	2.A/ 2.B 2.f	.	8dd\	Nisz-	W ser-
.	.	.	8cc\	-czysz	-cu
.	.	.	8dd\	kwia-	mem
.	.	.	8ee\	-ty	za-
.	.	.	8ff\	na-	-da-
.	.	.	8dd\	-szych	-łeś
=6	=6	=6	=6	=6	=6
2.AAA/ 2.AA	2.A/ 2.c 2.e	.	(2ee\	bło-	ra-
.	.	.	4cc\)	-ni?	-nę
=7	=7	=7	=7	=7	=7
2EE/ 2E	2.G#X/ 2.B 2.e	.	8b\	I	Mat-
.	.	.	(8qdd/	.	.
.	.	.	8cc\)	bez-	-ko
.	.	.	4.b\	-kar-	dro-
4DD/ 4D	.	.	.	.	.
.	.	.	8e/	-nie	-ga
!!LO:LB:g=original	!	!	!	!	!
=8	=8	=8	=8	=8	=8
4CC/ 4C	2A/ 2c 2e	.	8a/	Pie-	Tyś
.	.	.	8b\	-ścisz	u
4AAA/ 4AA	.	.	4cc\	mar-	Bo-
4FFF/ 4FF	4c/ 4d 4a	.	4dd\	-nie	-ga
=9	=9	=9	=9	=9	=9
*	*^	*	*	*	*
2.GGG/ 2.GG	(2a/	2.B\ 2.f	.	8ee\	Aż	O-
.	.	.	.	8ff\	za-	-broń
.	.	.	.	8ee\	-wię-	dzie-
.	.	.	.	8dd\	-dną	-cię
.	4g/)	.	.	8b\	w two-	twe
.	.	.	.	8g/	-jéj	ko-
*	*v	*v	*	*	*	*
=10	=10	=10	=10	=10	=10
2CC/ 2C	2.c/ 2.e 2.g	.	4ee\	dło-	-cha-
.	.	.	4cc\	-ni.	-ne!
4DD/ 4D	.	.	4r	.	.
!!LO:PB:g=original	!	!	!	!	!
=11	=11	=11	=11	=11	=11
2.EE/ 2.E	4B/ 4e 4g	.	8b\	Ej!	Oj-
.	.	.	8ee\	nie-	-cze
.	2c/ 2e 2a	.	4.cc\	-bo-	mi-
.	.	.	8a/	-że,	-ły,
=12	=12	=12	=12	=12	=12
2.EE/ 2.E	2.B/ 2.e 2.g	.	8b\	Tra-	Z twej
.	.	.	8g/	-fisz	mo-
.	.	.	4.e/	mo-	-gi-
.	.	.	8e/	-że,	-ły
=13	=13	=13	=13	=13	=13
2.EE/ 2.E	4A/ 4c 4e 4f#X	.	8f#X/	Na	Nio-
.	.	.	8e/	kwiat	-sę
.	2A^/ 2c 2e 2f#	.	8f#/	co	kwiat-
.	.	.	8g#X/	w swym	-ki
.	.	.	8a/	pącz-	dla
.	.	.	8cc\	-ku	ko-
!!LO:LB:g=original	!	!	!	!	!
=14	=14	=14	=14	=14	=14
*	*^	*	*	*	*
2EE/ 2E	4e/ 4g	4B/	.	(8b\L	kry-	-chan-
.	.	.	.	(8qddn/	.	.
.	.	.	.	8cc\J))	.	.
.	(4g/	2B\ 2e	.	4b\	-je,	-ka,
4DD/ 4D	4g#X/)	.	.	4r	.	.
*	*v	*v	*	*	*	*
=15	=15	=15	=15	=15	=15
2CC/ 2C	2A/ 2e 2a	.	8a/	Żą-	Com
.	.	.	8b\	-dło	cier-
.	.	.	4.cc\	pszczo-	-pia-
4DD/ 4D	4B/ 4f 4a	.	.	.	.
.	.	.	8b\	-le,	-ła
=16	=16	=16	=16	=16	=16
4EE/ 4E	4c/ 4e 4a	.	8b\	Co	I
.	.	.	8cc\	u-	pła-
2FF/ 2F	2A/ 2d 2a	.	4.ee\	-ko-	-ka-
.	.	.	8dd\	-le	-ła
=17	=17	=17	=17	=17	=17
2GG/ 2G	4c#X/ 4e 4a	.	8dd\	I	Niech
.	.	.	8cc#X\	swym	mu
.	4c#/ 4e 4a	.	8b\	ja-	po-
.	.	.	8cc#\	-dem	-wie
4AAA/ 4AA	4A/ 4c# 4e 4a	.	8dd\	cię	ta
.	.	.	8ee\	za-	rów-
!!LO:LB:g=original	!	!	!	!	!
=18	=18	=18	=18	=18	=18
2DD/ 2D	2A/ 2d 2f 2a	.	2ff\	-bi-	-nian-
4r	4r	.	(8ee\L	-ję,	-ka,
.	.	.	8dd\J)	.	.
=19	=19	=19	=19	=19	=19
2.FF/ 2.F	4r	.	8cc\	Żą-	Com
.	.	.	8b\	-dło	cier-
.	4B/ 4d 4a	.	4.a/	pszczo-	pia-
.	4B/ 4d#X 4a	.	.	.	.
.	.	.	8a/	-le,	-ła
=20	=20	=20	=20	=20	=20
2.EE/ 2.E	4r	.	8ee\	Co	I
.	.	.	8dd#X\	u-	pła-
.	4c/ 4e 4a	.	4.ee\	-ko-	-ka-
.	4c/ 4e 4a	.	.	.	.
.	.	.	8cc\	-le	-ła
=21	=21	=21	=21	=21	=21
2.EE/ 2.E	2.B/ 2.d 2.e 2.g#X	.	8cc\	I	Niech
.	.	.	8dd\	swym	mu
.	.	.	8cc\	ja-	po-
.	.	.	8b\	-dem	-wie
.	.	.	8g#X/	cię	ta
.	.	.	8e/	za-	rów-
!!LO:LB:g=original	!	!	!	!	!
=22	=22	=22	=22	=22	=22
!	!LO:TX:b:i:t=rit.	!	!LO:TX:a:i:t=rit.	!	!
2AAA/ 2AA	4r	.	(8b/L	-bi-	-nian-
.	.	.	8a/J)	.	.
.	4c/ 4e 4a	.	4a/	-je.	-ka!
4r	(8ee\L	p	4r	.	.
.	8aa\J)	.	.	.	.
=23	=23	=23	=23	=23	=23
*	*^	*	*	*	*
(4f\	(8aa/L	2dd\	.	2.r	.	.
.	8gg#X/J	.	.	.	.	.
4e\	4bb/)	.	.	.	.	.
4B\)	(<8dd/L	4g#X\	.	.	.	.
.	8ff/J)	.	.	.	.	.
=24	=24	=24	=24	=24	=24	=24
[4c\	(8ff/L	[4a\	.	2.r	.	.
.	8ee/J	.	.	.	.	.
8c\]	8aa/)	8a\]	.	.	.	.
8r	8r	8ryy	.	.	.	.
4F\	(8a/L	4d\	.	.	.	.
.	8b/J	.	.	.	.	.
=25	=25	=25	=25	=25	=25	=25
*^	*	*	*	*	*	*
2E\	2ryy	8cc/L	8c\	.	2.r	.	.
.	.	8dd/	8r	.	.	.	.
.	.	8ee/	4r	.	.	.	.
.	.	8ff/J)	.	.	.	.	.
(8G#X\L	4E\	(8ff\L	4d</	.	.	.	.
8B\J)	.	8g#X\J	.	.	.	.	.
*v	*v	*	*	*	*	*	*
*	*v	*v	*	*	*	*
=26	=26	=26	=26	=26	=26
4A\ 4c	4a/)	.	2.r	.	.
4AA/	4r	.	.	.	.
4r	4r	.	.	.	.
=:|!	=:|!	=:|!	=:|!	=:|!	=:|!
*-	*-	*-	*-	*-	*-
!!!system-decoration: s1{(s2,s3)}
!!!RDF**kern: > = above
!!!RDF**kern: < = below
!!!ENC: Filip Voros
!!!END: 2022-07-31
!!!ENC: Natalia Wrzos
!!!END: 2022-08-29
